**kern	**kern
*staff2	*staff1
*D:	*D:
*clefF4	*clefG2
*k[f#c#]	*k[f#c#]
*M4/4	*M4/4
=-	=-
4r	4a
=127	=127
16DLL	4dd)
16A	.
16F#	.
16AJJ	.
16DLL	(8.ddL
16A	.
16F#	.
16AJJ	16eeJk
16DLL	4dd)
16A	.
16F#	.
16AJJ	.
16DLL	4dd
16A	.
16F#	.
16AJJ	.
=128	=128
16C#LL	(8eeL)
16A	.
16E	8ddJ
16AJJ	.
16C#LL	8.eeL
16A	.
16E	.
16AJJ	16ff#Jk
16C#LL	4ee)
16A	.
16E	.
16AJJ	.
16C#LL	(8aaL
16A	.
16E	8ggJ)
16AJJ	.
=129	=129
16DLL	4gg
16A	.
16F#	.
16AJJ	.
16DLL	4ff#
16A	.
16F#	.
16AJJ	.
16AALL	4ee
16A	.
16E	.
16AJJ	.
16AALL	4aa
16A	.
16E	.
16AJJ	.
=130	=130
16C#LL	4aa
16A	.
16E	.
16AJJ	.
16C#LL	4gg
16A	.
16E	.
16AJJ	.
16DLL	2ff#
16A	.
16F#	.
16AJJ	.
16DLL	.
16A	.
16F#	.
16AJJ	.
=131	=131
16GLL	(8ff#
16e	.
16B	8ee
16eJJ	.
16F#LL	4dd)
16d	.
16A	.
16dJJ	.
16GLL	(8eeL
16e	.
16B	8gg)
16eJJ	.
16ALL	(8ff#
16g	.
16e	8eeJ)
16gJJ	.
=132	=132
16DLL	2dd
16d	.
16c#	.
16dJJ	.
16ALL	.
16d	.
16F#	.
16AJJ	.
4D	4r
4r	4r
==	==
*-	*-
